symbolic/24x24/apps/cuphead.svg

<svg xmlns="http://www.w3.org/2000/svg" width="24" height="24" version="1">
 <circle style="opacity:0.2" cx="13" cy="12.5" r="10"/>
 <circle style="fill:#ffb310" cx="13" cy="12" r="10"/>
 <path style="opacity:0.2;fill:#ffffff" d="M 13,2 A 10,10 0 0 0 3,12 10,10 0 0 0 3.0107422,12.291016 10,10 0 0 1 13,2.5 10,10 0 0 1 22.989258,12.208985 10,10 0 0 0 23,12 10,10 0 0 0 13,2 Z"/>
 <path style="opacity:0.2" d="m 6.8735715,3.5402655 c -0.083699,-0.00331 -0.167523,-0.00135 -0.2509765,0.00586 l -4.7662737,0.407435 c 0,0 -0.9426723,1.0587745 -0.8498964,2.143641 0.09058,1.1248395 0.9820043,1.859519 0.9820043,1.859519 L 5.407751,7.664289 6.7329465,11.5305 10.516149,10.232649 8.685095,4.889875 C 8.417399,4.1094419 7.6979715,3.5734585 6.8735715,3.5402655 Z"/>
 <path style="fill:#ffffff" d="M 6.8735715,3.040039 C 6.7898725,3.036739 6.7060485,3.038699 6.622595,3.045899 L 1.8563213,3.4533341 c 0,0 -0.9426723,1.0587744 -0.8498964,2.1436409 0.09058,1.1248395 0.9820043,1.859519 0.9820043,1.859519 L 5.407751,7.1640625 6.7329465,11.030274 10.516149,9.732422 8.685095,4.3896484 C 8.417399,3.6092154 7.6979715,3.073232 6.8735715,3.040039 Z"/>
 <path style="fill:#df4418" d="M 5.301306,3.1591797 2.855017,3.368164 C 2.6077593,4.050669 2.3879702,4.7911025 2.3891966,5.292969 c 0.00141,0.57406 0.2869145,1.396527 0.5742188,2.080078 L 5.407751,7.1640625 5.9067745,8.6191405 H 6.189978 c 0,0 -0.128739,-0.224348 -0.299805,-0.5371095 C 6.383057,7.5747875 7.234453,6.757772 7.8159545,6.580078 8.2338065,6.452392 8.894921,6.533308 9.4585325,6.647461 L 8.860876,4.902344 C 8.2294305,4.859999 7.473664,4.8482325 7.035681,4.9873045 6.3805435,5.195317 5.460511,6.0357875 5.0815795,6.4003905 4.8640675,5.861149 4.6964952,5.327596 4.6997435,4.942383 4.7039993,4.4376723 4.9856335,3.7652177 5.301306,3.1591797 Z"/>
 <path style="opacity:0.2" d="M 13,7.5 C 9.1241672,7.5 5.8296865,8.4124899 4.5625,9.5253906 A 4,4 0 0 0 1,13.5 a 4,4 0 0 0 4,4 4,4 0 0 0 1.8398438,-0.453125 C 8.4507024,18.563197 10.613155,19.5 13,19.5 c 4.970562,0 9,-4.029437 9,-9 0,-2.5 -4.029438,-3 -9,-3 z m -8.8574219,4.544922 c 0.1742224,1.005242 0.5080996,1.953093 0.9863281,2.814453 A 1.5,1.5 0 0 1 4.5,15 1.5,1.5 0 0 1 3,13.5 1.5,1.5 0 0 1 4.1425781,12.044922 Z"/>
 <path style="fill:#e4e4e4" d="m 22,10 c 0,4.970563 -4.029438,9 -9,9 -4.9705625,0 -9,-4.029437 -9,-9 0,-1.5 4.0294375,-3 9,-3 4.970562,0 9,0.5 9,3 z"/>
 <path style="opacity:0.2" d="m 17.662386,7.767578 c -0.459664,0.7399895 -0.716804,1.7258685 -0.717773,2.751953 1.51e-4,2.198366 1.352527,3.980392 2.774137,3.980469 0.683025,-8e-4 1.33785,-0.421294 1.820312,-1.168945 C 21.834361,12.440115 22,11.490012 22,10.5 22,8.901724 20.149224,8.1229295 17.662386,7.767578 Z"/>
 <path style="fill:#ffffff" d="m 17.662386,7.267578 c -0.459664,0.7399895 -0.716804,1.7258685 -0.717773,2.751953 1.51e-4,2.198366 1.352527,3.980392 2.774137,3.980469 0.683025,-8e-4 1.33785,-0.421294 1.820312,-1.168945 C 21.834361,11.940115 22,10.990012 22,10 22,8.401724 20.149224,7.6229295 17.662386,7.267578 Z"/>
 <path style="fill:#e4e4e4" d="M 5,9 A 4,4 0 0 0 1,13 4,4 0 0 0 5,17 4,4 0 0 0 9,13 4,4 0 0 0 5,9 Z M 4.5,11.5 A 1.5,1.5 0 0 1 6,13 1.5,1.5 0 0 1 4.5,14.5 1.5,1.5 0 0 1 3,13 1.5,1.5 0 0 1 4.5,11.5 Z"/>
 <path style="fill:#3f3f3f" d="m 15.907818,16.682202 c -0.364001,1.199622 -2.481047,1.670126 -4.788786,1.033566 -2.307739,-0.63656 -3.9311315,-2.138789 -3.5682765,-3.338753 0.6101835,-2.017886 2.0172795,-0.0087 4.3250195,0.62782 2.307739,0.636559 4.618058,-0.253938 4.032043,1.677367 z"/>
 <path style="fill:#df4418" d="m 8.379883,14.820313 c -0.31852,0.01753 -0.596728,0.104206 -0.8271485,0.271484 0.283177,1.029097 1.700687,2.109388 3.5664065,2.624023 0.583213,0.160872 1.153862,0.24983 1.6875,0.275391 0.234553,-1.088931 -0.607082,-1.877121 -1.905274,-2.490235 0.06417,0.332471 0.124625,0.665513 0.198243,0.996094 L 10.094727,15.164063 C 9.4607275,14.931219 8.8728345,14.793171 8.379883,14.820313 Z"/>
 <path style="fill:#3f3f3f" d="m 18.584158,8.19802 a 1.5,2.5 0 0 0 -1.5,2.5 1.5,2.5 0 0 0 1.5,2.5 1.5,2.5 0 0 0 1.430664,-1.75293 L 18.838065,10.455833 19.91619,9.548606 A 1.5,2.5 0 0 0 18.584158,8.19802 Z"/>
 <path style="opacity:0.2" d="M 13,7.5 C 11.046191,7.5 9.2429985,7.7340195 7.767578,8.1064455 A 5.25,5.25 0 0 0 7.5,9.75 5.25,5.25 0 0 0 12.75,15 5.25,5.25 0 0 0 18,9.75 5.25,5.25 0 0 0 17.591797,7.732422 C 16.246261,7.5603575 14.679626,7.5 13,7.5 Z"/>
 <path style="fill:#ffffff" d="M 13,7 C 11.046191,7 9.2429985,7.2340195 7.767578,7.6064455 A 5.25,5.25 0 0 0 7.5,9.25 5.25,5.25 0 0 0 12.75,14.5 5.25,5.25 0 0 0 18,9.25 5.25,5.25 0 0 0 17.591797,7.232422 C 16.246261,7.0603575 14.679626,7 13,7 Z"/>
 <path style="fill:#3f3f3f" d="M 12.5,8 A 1.5,2.5 0 0 0 11,10.5 1.5,2.5 0 0 0 12.5,13 1.5,2.5 0 0 0 13.930664,11.247071 L 12.753906,10.257813 13.832031,9.350586 A 1.5,2.5 0 0 0 12.5,8 Z"/>
 <ellipse style="opacity:0.1" cx="17.75" cy="13.5" rx="1.25" ry="1"/>
 <ellipse style="fill:#df4418" cx="17.75" cy="13" rx="1.25" ry="1"/>
 <path style="opacity:0.2" d="m 8.359375,13.5 c -0.349495,0.0088 -0.6179115,0.246364 -0.808594,0.876953 -0.058885,0.194734 -0.060676,0.397853 -0.020505,0.603516 0.00712,-0.03444 0.01023,-0.06953 0.020505,-0.103516 0.6101835,-2.017885 2.017456,-0.0086 4.325196,0.62793 1.920541,0.529755 3.836611,0.0076 4.089844,0.928711 0.30423,-1.595849 -1.890935,-0.822172 -4.089844,-1.428711 C 10.289406,14.567247 9.128264,13.480546 8.359375,13.5 Z"/>
</svg>

<svg xmlns="http://www.w3.org/2000/svg" width="24" height="24" version="1"><circle style="opacity:.2" cx="13" cy="12.5" r="10"/><circle style="fill:#ffb310" cx="13" cy="12" r="10"/><path style="opacity:.2;fill:#fff" d="M13 2A10 10 0 0 0 3 12a10 10 0 0 0 .01.291A10 10 0 0 1 13 2.5a10 10 0 0 1 9.99 9.709A10 10 0 0 0 23 12 10 10 0 0 0 13 2z"/><path style="opacity:.2" d="M6.874 3.54a1.998 1.998 0 0 0-.251.006l-4.767.408s-.942 1.058-.85 2.143c.091 1.125.982 1.86.982 1.86l3.42-.293 1.325 3.867 3.783-1.298-1.83-5.343a2 2 0 0 0-1.812-1.35z"/><path style="fill:#fff" d="M6.874 3.04a2.002 2.002 0 0 0-.251.006l-4.767.407s-.942 1.06-.85 2.144c.091 1.125.982 1.86.982 1.86l3.42-.293 1.325 3.866 3.783-1.298-1.83-5.342a2 2 0 0 0-1.812-1.35z"/><path style="fill:#df4418" d="m5.301 3.16-2.446.208c-.247.683-.467 1.423-.466 1.925.002.574.287 1.396.574 2.08l2.445-.209.499 1.455h.283s-.129-.224-.3-.537c.493-.507 1.344-1.324 1.926-1.502.418-.128 1.079-.047 1.643.067L8.86 4.902c-.632-.042-1.387-.054-1.825.085C6.38 5.195 5.46 6.036 5.082 6.4c-.218-.539-.386-1.072-.382-1.458.004-.504.286-1.177.601-1.783z"/><path style="opacity:.2" d="M13 7.5c-3.876 0-7.17.912-8.438 2.025A4 4 0 0 0 1 13.5a4 4 0 0 0 4 4 4 4 0 0 0 1.84-.453A8.957 8.957 0 0 0 13 19.5a9 9 0 0 0 9-9c0-2.5-4.03-3-9-3zm-8.857 4.545a8.925 8.925 0 0 0 .986 2.814A1.5 1.5 0 0 1 4.5 15 1.5 1.5 0 0 1 3 13.5a1.5 1.5 0 0 1 1.143-1.455z"/><path style="fill:#e4e4e4" d="M22 10a9 9 0 0 1-18 0c0-1.5 4.03-3 9-3s9 .5 9 3z"/><path style="opacity:.2" d="M17.662 7.768c-.46.74-.716 1.725-.717 2.752 0 2.198 1.352 3.98 2.774 3.98.683 0 1.338-.421 1.82-1.169.295-.89.461-1.841.461-2.831 0-1.598-1.85-2.377-4.338-2.732z"/><path style="fill:#fff" d="M17.662 7.268c-.46.74-.716 1.725-.717 2.752 0 2.198 1.352 3.98 2.774 3.98.683 0 1.338-.421 1.82-1.169.295-.89.461-1.841.461-2.831 0-1.598-1.85-2.377-4.338-2.732z"/><path style="fill:#e4e4e4" d="M5 9a4 4 0 0 0-4 4 4 4 0 0 0 4 4 4 4 0 0 0 4-4 4 4 0 0 0-4-4zm-.5 2.5A1.5 1.5 0 0 1 6 13a1.5 1.5 0 0 1-1.5 1.5A1.5 1.5 0 0 1 3 13a1.5 1.5 0 0 1 1.5-1.5z"/><path style="fill:#3f3f3f" d="M15.908 16.682c-.364 1.2-2.481 1.67-4.789 1.034-2.308-.637-3.931-2.139-3.568-3.339.61-2.018 2.017-.009 4.325.628 2.308.636 4.618-.254 4.032 1.677z"/><path style="fill:#df4418" d="M8.38 14.82a1.519 1.519 0 0 0-.827.272c.283 1.029 1.7 2.11 3.566 2.624.583.16 1.154.25 1.688.275.234-1.089-.607-1.877-1.906-2.49.065.332.125.665.199.996l-1.005-1.333c-.634-.233-1.222-.37-1.715-.344z"/><path style="fill:#3f3f3f" d="M18.584 8.198a1.5 2.5 0 0 0-1.5 2.5 1.5 2.5 0 0 0 1.5 2.5 1.5 2.5 0 0 0 1.43-1.753l-1.176-.99 1.078-.906a1.5 2.5 0 0 0-1.332-1.351z"/><path style="opacity:.2" d="M13 7.5c-1.954 0-3.757.234-5.232.606A5.25 5.25 0 0 0 7.5 9.75 5.25 5.25 0 0 0 12.75 15 5.25 5.25 0 0 0 18 9.75a5.25 5.25 0 0 0-.408-2.018C16.246 7.56 14.68 7.5 13 7.5z"/><path style="fill:#fff" d="M13 7c-1.954 0-3.757.234-5.232.606A5.25 5.25 0 0 0 7.5 9.25a5.25 5.25 0 0 0 5.25 5.25A5.25 5.25 0 0 0 18 9.25a5.25 5.25 0 0 0-.408-2.018C16.246 7.06 14.68 7 13 7z"/><path style="fill:#3f3f3f" d="M12.5 8a1.5 2.5 0 0 0-1.5 2.5 1.5 2.5 0 0 0 1.5 2.5 1.5 2.5 0 0 0 1.43-1.753l-1.176-.99 1.078-.906A1.5 2.5 0 0 0 12.5 8z"/><ellipse style="opacity:.1" cx="17.75" cy="13.5" rx="1.25" ry="1"/><ellipse style="fill:#df4418" cx="17.75" cy="13" rx="1.25" ry="1"/><path style="opacity:.2" d="M8.36 13.5c-.35.009-.619.246-.81.877-.058.195-.06.398-.02.603.007-.034.01-.07.02-.103.611-2.018 2.018-.009 4.326.628 1.92.53 3.837.007 4.09.929.304-1.596-1.891-.823-4.09-1.43-1.587-.437-2.748-1.523-3.517-1.504z"/></svg>
